icons/svgs/face-sleeping-solid.svg

<svg width="24" height="24" viewBox="0 0 24 24" fill="none" xmlns="http://www.w3.org/2000/svg">
<path d="M22 12C22 17.5469 17.5078 22 12 22C6.45312 22 2 17.5469 2 12C2 6.49219 6.45312 2 12 2C13.875 2 15.6719 2.54688 17.1953 3.48438C17.2344 3.64062 17.3516 3.75781 17.4688 3.875C17 4.42188 16.8438 5.20312 17.1172 5.86719C17.4297 6.57031 18.0938 7 18.875 7H20.6328C21.4922 8.48438 22 10.2031 22 12ZM12.625 5.75H13.6016L12.1562 7.19531C12 7.39062 11.9219 7.66406 12.0391 7.89844C12.1172 8.13281 12.3516 8.25 12.625 8.25H15.125C15.4375 8.25 15.75 7.97656 15.75 7.625C15.75 7.3125 15.4375 7 15.125 7H14.1094L15.5547 5.59375C15.7109 5.39844 15.7891 5.125 15.6719 4.89062C15.5938 4.65625 15.3594 4.5 15.125 4.5H12.625C12.2734 4.5 12 4.8125 12 5.125C12 5.47656 12.2734 5.75 12.625 5.75ZM10.4375 17C10.4375 17.5859 10.7109 18.0938 11.2188 18.3672C11.6875 18.6406 12.2734 18.6406 12.7812 18.3672C13.25 18.0938 13.5625 17.5859 13.5625 17C13.5625 16.4531 13.25 15.9453 12.7812 15.6719C12.2734 15.3984 11.6875 15.3984 11.2188 15.6719C10.7109 15.9453 10.4375 16.4531 10.4375 17ZM17.1172 11.3359C16.4141 12.2344 15.0469 12.2344 14.3438 11.3359C14.1484 11.0625 13.7578 10.9844 13.4844 11.2188C13.2109 11.4141 13.1328 11.8047 13.3672 12.0781C14.5391 13.6797 16.9219 13.6797 18.0938 12.0781C18.3281 11.8047 18.25 11.4141 17.9766 11.2188C17.7031 10.9844 17.3125 11.0625 17.1172 11.3359ZM6.84375 11.3359C6.64844 11.0625 6.25781 10.9844 5.98438 11.2188C5.71094 11.4141 5.63281 11.8047 5.86719 12.0781C7.03906 13.6797 9.42188 13.6797 10.5938 12.0781C10.8281 11.8047 10.75 11.4141 10.4766 11.2188C10.2031 10.9844 9.8125 11.0625 9.61719 11.3359C8.91406 12.2344 7.54688 12.2344 6.84375 11.3359ZM18.25 2.625C18.25 2.3125 18.5234 2 18.875 2H21.375C21.6094 2 21.8438 2.15625 21.9219 2.39062C22.0391 2.625 21.9609 2.89844 21.8047 3.09375L20.3594 4.5H21.375C21.6875 4.5 22 4.8125 22 5.125C22 5.47656 21.6875 5.75 21.375 5.75H18.875C18.6016 5.75 18.3672 5.59375 18.2891 5.39844C18.1719 5.16406 18.25 4.89062 18.4062 4.69531L19.8516 3.25H18.875C18.5234 3.25 18.25 2.97656 18.25 2.625Z" fill="black"/>
</svg>

<svg xmlns="http://www.w3.org/2000/svg" width="24" height="24" fill="currentColor" class="icon-face-sleeping-solid" viewBox="0 0 24 24">
  <mask id="a" width="20" height="20" x="2" y="2" maskUnits="userSpaceOnUse" style="mask-type:alpha">
    <path d="M22 12c0 5.547-4.492 10-10 10A9.97 9.97 0 0 1 2 12C2 6.492 6.453 2 12 2c1.875 0 3.672.547 5.195 1.484.04.157.157.274.274.391-.469.547-.625 1.328-.352 1.992A1.88 1.88 0 0 0 18.875 7h1.758A10 10 0 0 1 22 12m-9.375-6.25h.977l-1.446 1.445c-.156.196-.234.47-.117.703.078.235.313.352.586.352h2.5a.64.64 0 0 0 .625-.625c0-.312-.312-.625-.625-.625h-1.016l1.446-1.406c.156-.196.234-.469.117-.703a.59.59 0 0 0-.547-.391h-2.5a.64.64 0 0 0-.625.625c0 .352.273.625.625.625M10.438 17c0 .586.273 1.094.78 1.367.47.274 1.055.274 1.563 0 .469-.273.781-.781.781-1.367a1.56 1.56 0 0 0-.78-1.328c-.509-.274-1.094-.274-1.563 0A1.48 1.48 0 0 0 10.438 17m6.68-5.664a1.764 1.764 0 0 1-2.774 0 .584.584 0 0 0-.86-.117.584.584 0 0 0-.117.86 2.925 2.925 0 0 0 4.727 0 .584.584 0 0 0-.117-.86.584.584 0 0 0-.86.117m-10.274 0a.584.584 0 0 0-.86-.117.584.584 0 0 0-.117.86 2.925 2.925 0 0 0 4.727 0 .584.584 0 0 0-.117-.86.584.584 0 0 0-.86.117 1.764 1.764 0 0 1-2.773 0M18.25 2.625c0-.312.273-.625.625-.625h2.5c.234 0 .469.156.547.39.117.235.039.508-.117.704L20.359 4.5h1.016c.313 0 .625.313.625.625a.64.64 0 0 1-.625.625h-2.5c-.273 0-.508-.156-.586-.352-.117-.234-.039-.507.117-.703l1.446-1.445h-.977a.617.617 0 0 1-.625-.625"/>
  </mask>
  <g mask="url(#a)">
    <path d="M0 0h24v24H0z"/>
  </g>
</svg>
